file/twitter.svg

<svg clip-rule="evenodd" fill-rule="evenodd" stroke-linejoin="round" stroke-miterlimit="1.41421" viewBox="0 0 560 400" xmlns="http://www.w3.org/2000/svg"><path d="m633.9 812.041c112.46 0 173.96-93.168 173.96-173.96 0-2.646-.054-5.28-.173-7.903 11.938-8.63 22.314-19.4 30.498-31.66-10.955 4.87-22.744 8.148-35.111 9.626 12.623-7.569 22.314-19.543 26.886-33.817-11.813 7.003-24.895 12.093-38.824 14.841-11.157-11.884-27.041-19.317-44.629-19.317-33.764 0-61.144 27.381-61.144 61.132 0 4.798.537 9.464 1.586 13.941-50.815-2.557-95.874-26.886-126.03-63.88-5.251 9.035-8.279 19.531-8.279 30.73 0 21.212 10.794 39.938 27.208 50.893-10.031-.31-19.454-3.064-27.69-7.647-.009.257-.009.507-.009.781 0 29.61 21.075 54.332 49.051 59.934-5.137 1.4-10.543 2.151-16.122 2.151-3.933 0-7.766-.387-11.491-1.102 7.784 24.293 30.355 41.971 57.115 42.465-20.926 16.402-47.287 26.171-75.937 26.171-4.929 0-9.798-.281-14.584-.847 27.059 17.344 59.189 27.464 93.722 27.464" fill="#1da1f2" fill-rule="nonzero" transform="matrix(.906028 0 0 .906028 -344.419 -426.017)"/></svg>

<?xml version="1.0" encoding="UTF-8" standalone="no"?>
<!DOCTYPE svg PUBLIC "-//W3C//DTD SVG 1.1//EN" "http://www.w3.org/Graphics/SVG/1.1/DTD/svg11.dtd">
<svg width="100%" height="100%" viewBox="0 0 560 400" version="1.1" xmlns="http://www.w3.org/2000/svg" xmlns:xlink="http://www.w3.org/1999/xlink" xml:space="preserve" xmlns:serif="http://www.serif.com/" style="fill-rule:evenodd;clip-rule:evenodd;stroke-linejoin:round;stroke-miterlimit:1.41421;">
    <g transform="matrix(0.906028,0,0,0.906028,-344.419,-426.017)">
        <path d="M633.9,812.041C746.36,812.041 807.86,718.873 807.86,638.081C807.86,635.435 807.806,632.801 807.687,630.178C819.625,621.548 830.001,610.778 838.185,598.518C827.23,603.388 815.441,606.666 803.074,608.144C815.697,600.575 825.388,588.601 829.96,574.327C818.147,581.33 805.065,586.42 791.136,589.168C779.979,577.284 764.095,569.851 746.507,569.851C712.743,569.851 685.363,597.232 685.363,630.983C685.363,635.781 685.9,640.447 686.949,644.924C636.134,642.367 591.075,618.038 560.919,581.044C555.668,590.079 552.64,600.575 552.64,611.774C552.64,632.986 563.434,651.712 579.848,662.667C569.817,662.357 560.394,659.603 552.158,655.02C552.149,655.277 552.149,655.527 552.149,655.801C552.149,685.411 573.224,710.133 601.2,715.735C596.063,717.135 590.657,717.886 585.078,717.886C581.145,717.886 577.312,717.499 573.587,716.784C581.371,741.077 603.942,758.755 630.702,759.249C609.776,775.651 583.415,785.42 554.765,785.42C549.836,785.42 544.967,785.139 540.181,784.573C567.24,801.917 599.37,812.037 633.903,812.037" style="fill:rgb(29,161,242);fill-rule:nonzero;"/>
    </g>
</svg>
